img/useCases/Car Rentals.svg

<svg width="94" height="94" viewBox="0 0 94 94" fill="none" xmlns="http://www.w3.org/2000/svg">
<path d="M93.8002 47.0001C93.8002 72.8471 72.8471 93.8002 47.0001 93.8002C21.1531 93.8002 0.2 72.8471 0.2 47.0001C0.2 21.1531 21.1531 0.2 47.0001 0.2C72.8471 0.2 93.8002 21.1531 93.8002 47.0001Z" fill="#F9FBFF" stroke="#0037FC" stroke-width="0.4"/>
<path d="M63.9483 49.42L60.3498 42.2333C60.0408 41.7315 59.6076 41.3177 59.0919 41.0316C58.5762 40.7455 57.9954 40.5969 57.4055 40.6H37.1228C36.5329 40.5969 35.9521 40.7455 35.4364 41.0316C34.9207 41.3177 34.4875 41.7315 34.1785 42.2333L30.58 49.42L26.5234 53.1832C26.3582 53.3362 26.2264 53.5217 26.1363 53.728C26.0462 53.9343 25.9998 54.157 26 54.3821V68.3667C26 68.7999 26.1723 69.2153 26.4791 69.5216C26.7858 69.8279 27.2019 70 27.6357 70H34.1785C34.8328 70 35.8142 69.3467 35.8142 68.6933V66.7333H58.7141V68.3667C58.7141 69.02 59.3684 70 60.0226 70H66.8926C67.3264 70 67.7425 69.8279 68.0492 69.5216C68.356 69.2153 68.5283 68.7999 68.5283 68.3667V54.3821C68.5285 54.157 68.4821 53.9343 68.392 53.728C68.3019 53.5217 68.1701 53.3362 68.0049 53.1832L63.9483 49.42ZM37.4499 43.8667H57.0784L60.3498 50.4H34.1785L37.4499 43.8667ZM39.0856 58.8933C39.0856 59.5467 38.1042 60.2 37.4499 60.2H30.58C29.9257 60.2 29.2714 59.22 29.2714 58.5667V54.9733C29.5985 53.9933 30.2528 53.34 31.2343 53.6667L37.7771 54.9733C38.4314 54.9733 39.0856 55.9533 39.0856 56.6067V58.8933ZM65.2569 58.5667C65.2569 59.22 64.6026 60.2 63.9483 60.2H57.0784C56.4241 60.2 55.4427 59.5467 55.4427 58.8933V56.6067C55.4427 55.9533 56.097 54.9733 56.7512 54.9733L63.2941 53.6667C64.2755 53.34 64.9298 53.9933 65.2569 54.9733V58.5667ZM66.8926 21H58.7141C57.8464 21 57.0144 21.3442 56.4008 21.9568C55.7873 22.5694 55.4427 23.4003 55.4427 24.2667H29.2714L26 27.5333V30.8L29.2714 34.0667L34.1785 29.1667L39.0856 34.0667L43.9927 29.1667L48.8999 34.0667H55.4427C55.4427 34.933 55.7873 35.7639 56.4008 36.3765C57.0144 36.9892 57.8464 37.3333 58.7141 37.3333H66.8926C67.3264 37.3333 67.7425 37.1612 68.0492 36.8549C68.356 36.5486 68.5283 36.1332 68.5283 35.7V22.6333C68.5283 22.2001 68.356 21.7847 68.0492 21.4784C67.7425 21.1721 67.3264 21 66.8926 21ZM65.2569 32.4333C65.2569 32.8665 65.0846 33.282 64.7778 33.5883C64.4711 33.8946 64.055 34.0667 63.6212 34.0667C63.1874 34.0667 62.7713 33.8946 62.4646 33.5883C62.1578 33.282 61.9855 32.8665 61.9855 32.4333V25.9C61.9855 25.4668 62.1578 25.0514 62.4646 24.7451C62.7713 24.4387 63.1874 24.2667 63.6212 24.2667C64.055 24.2667 64.4711 24.4387 64.7778 24.7451C65.0846 25.0514 65.2569 25.4668 65.2569 25.9V32.4333Z" fill="#0037FC"/>
</svg>

<svg width="94" height="94" fill="none" xmlns="http://www.w3.org/2000/svg"><path d="M93.8 47c0 25.847-20.953 46.8-46.8 46.8C21.153 93.8.2 72.847.2 47 .2 21.153 21.153.2 47 .2 72.847.2 93.8 21.153 93.8 47z" fill="#F9FBFF" stroke="#0037FC" stroke-width=".4"/><path d="M63.948 49.42l-3.598-7.187a3.433 3.433 0 00-2.944-1.633H37.123a3.44 3.44 0 00-2.944 1.633L30.58 49.42l-4.057 3.763a1.634 1.634 0 00-.523 1.2v13.984A1.632 1.632 0 0027.636 70h6.543c.654 0 1.635-.653 1.635-1.307v-1.96h22.9v1.634c0 .653.654 1.633 1.309 1.633h6.87a1.637 1.637 0 001.635-1.633V54.382a1.63 1.63 0 00-.523-1.199l-4.057-3.763zM37.45 43.867h19.628L60.35 50.4H34.178l3.272-6.533zm1.636 15.026c0 .654-.982 1.307-1.636 1.307h-6.87c-.654 0-1.309-.98-1.309-1.633v-3.594c.328-.98.982-1.633 1.963-1.306l6.543 1.306c.654 0 1.309.98 1.309 1.634v2.286zm26.17-.326c0 .653-.653 1.633-1.308 1.633h-6.87c-.654 0-1.635-.653-1.635-1.307v-2.286c0-.654.654-1.634 1.308-1.634l6.543-1.306c.981-.327 1.636.326 1.963 1.306v3.594zM66.894 21h-8.179c-.868 0-1.7.344-2.313.957a3.264 3.264 0 00-.958 2.31H29.27L26 27.533V30.8l3.271 3.267 4.907-4.9 4.908 4.9 4.907-4.9 4.907 4.9h6.543c0 .866.344 1.697.958 2.31a3.274 3.274 0 002.313.956h8.179a1.637 1.637 0 001.635-1.633V22.633A1.632 1.632 0 0066.893 21zm-1.636 11.433a1.632 1.632 0 01-1.636 1.634 1.637 1.637 0 01-1.636-1.634V25.9a1.632 1.632 0 011.636-1.633 1.636 1.636 0 011.636 1.633v6.533z" fill="#0037FC"/></svg>
